X: 3394
T: COAL BLACK ROSE
%R: march, reel
B: James Kerr "Merry Melodies" v.3 p.43 #394
Z: 2016 John Chambers <jc:trillian.mit.edu>
M: 2/4
L: 1/16
K: G
|:\
B4 c4 | B2B2 A4 | BBBB c2c2 | B2A2 G4 |\
B2d2 c2d2 | (B2d2) A4 | BBBB c2c2 | B2A2G2z2 :|
|:\
Bdgf edcB | ABcd B2G2 | Bdgf edcB | A2d2G2 (dc) |\
Bdgf edcB | ABcd B2G2 | Bdgf edcB | A2d2G2z2 :|

%%sep 1 1 500
%%sep 1 1 500

